X: 333
T: Andrews Viazanka
B: tunes
M:4/4
L:1/4
Q: 1/4=100
K:Am
V:1 
"Am"AedB|cBAG|Ac"G"dg|"Am"e/>e/e/f/e2|
"Dm"fedf|"Am"edce|"F"g/f/e/d/"G"cB|"Am"A4||
"G"G2g>f|"C"edcB|"G"Gg g/f/e/d/|"C"e/>e/e/f/e2|
"Dm"fedf|"Am"edce|"G"g/f/e/d/cB|"Am"A4||
W: 
% abcbook-tune_id 63914357d618ce78e0cfcc6e
% abcbook-tune_composer_id 
% abcbook-boost 12
% abcbook-difficulty 0
% abcbook-tags andrew kordas,steve ryan,no youtube available
% abcbook-tablature 
% abcbook-transpose 
% abcbook-tuning 
% abcbook-lastupdated 1675500946372
% abcbook-soundfonts 
% abcbook-repeats 5


